svgs/sharp-solid/hospitals.svg

<svg xmlns="http://www.w3.org/2000/svg" viewBox="0 0 576 512"><!--! Font Awesome Pro 6.6.0 by @fontawesome - https://fontawesome.com License - https://fontawesome.com/license (Commercial License) Copyright 2024 Fonticons, Inc. --><path d="M576 0L256 0l0 64 64 0 0 448 256 0 0-128-112 0-16 0 0-32 16 0 112 0 0-64-112 0-16 0 0-32 16 0 112 0L576 0zM408 80l48 0 0 40 40 0 0 48-40 0 0 40-48 0 0-40-40 0 0-48 40 0 0-40zM0 96L0 384l144 0 16 0 0 32-16 0L0 416l0 96 288 0 0-416L0 96zm120 80l48 0 0 40 40 0 0 48-40 0 0 40-48 0 0-40-40 0 0-48 40 0 0-40z"/></svg>

<svg xmlns="http://www.w3.org/2000/svg" viewBox="0 0 576 512"><!--! Font Awesome Pro 6.4.2 by @fontawesome - https://fontawesome.com License - https://fontawesome.com/license (Commercial License) Copyright 2023 Fonticons, Inc. --><path d="M576 0H256V64h64V512H576V384H464 448V352h16H576V288H464 448V256h16H576V0zM408 80h48v40h40v48H456v40H408V168H368V120h40V80zM0 96V384H144h16v32H144 0v96H288V96H0zm120 80h48v40h40v48H168v40H120V264H80V216h40V176z"/></svg>
